X:1
T:Title
%%score { ( 1 4 ) | ( 2 3 ) }
L:1/8
M:3/4
K:G
V:1 treble nm="Grand Piano"
V:4 treble 
V:2 bass 
V:3 bass 
V:1
 z2 z2[Q:1/4=100] D2 | [B,G]3 [DB] [CA][B,G] | [Ec]2 [DB]2 A2 | G3 A B[Ec] |[M:5/8] B2 A2 z | %5
[M:1/8] A |[M:3/4] B3 d cB | z2 z2 [Ec]2 | B3 A GF |[M:2/4] [B,DG]4 |[M:1/4] [B,D]2 | %11
[M:3/4] [B,D]3 [B,D] [G,DG][G,DF] | [A,^DF]2 [G,E]2 [^G,=DE]2 | [A,^CA]3 [A,CA] [A,CA][A,EG] | %14
[M:5/8] D2- [DF]2 z |[M:1/8] [A,DF] |[M:3/4] [G,DG]3 A Bc | d2 z2 z2 | G3 G AF |[M:5/8] G- G3 z | %20
[M:1/8] D |[M:3/4] .[G,B,D]2 .[G,B,G]2 .[G,B,F]2 | [G,CE]4 [^G,DE]2 | %23
 [A,^CA]3 [A,CA] [A,CA][A,EG] | D2- [DF]2 z F | GA Bc dB | c4 [Ec]2 | B3 A GF | %28
[M:6/4] .[B,DG]6 z6 |[M:3/4] [CEG]6 | [G,B,DG]6 |] %31
V:2
 z2 z2 D,2 | [G,,G,]3 [G,,G,] [G,,G,][G,,G,] | [G,,G,]2 [G,,G,]2 [D,F,C]2 | %3
 [E,G,B,]3 [D,F,D] [G,D][C,G,] |[M:5/8] [D,D]- [D,D]3 z |[M:1/8] [D,F,D] | %6
[M:3/4] [G,D]3 [G,B,D] [F,A,D][G,D] | C,2 z B, .[C,A,]2 | [D,F,D]3 [D,CD] [D,B,D][D,A,D] | %9
[M:2/4] G,,4 |[M:1/4] G,2 |[M:3/4] G,3 G, B,,B,, | C,2 C,2 B,,2 | A,,3 A,, A,,^C, | %14
[M:5/8] z2 A,2 z |[M:1/8] C, |[M:3/4] B,,3 [D,F,D] [G,D][G,A,D] | .[G,B,D]2 [C,C]2 [C,C]2 | %18
 [D,B,D]3 [D,B,D] [D,CD][D,A,D] |[M:5/8] [G,B,D]- [G,B,D]3 z |[M:1/8] D, |[M:3/4] z G z F z E | %22
 C,4 B,,2 | A,,3 A,, A,,^C, | z2 A,2 z [D,A,D] | [G,B,D]2 [G,B,D]2 [=F,G,D]2 | [E,G,C]4 [C,G,]2 | %27
 [D,G,D]3 [D,CD] [D,B,D][D,A,D] |[M:6/4] .G,,6 z6 |[M:3/4] C,6 | G,,6 |] %31
V:3
 x6 | x6 | x6 | x6 |[M:5/8] G,2 F,2 z |[M:1/8] x |[M:3/4] x6 | z2 C,2 z2 | x6 |[M:2/4] x4 | %10
[M:1/4] x2 |[M:3/4] x6 | x6 | x6 |[M:5/8] D,- D,3 z |[M:1/8] x |[M:3/4] x6 | x6 | x6 |[M:5/8] x5 | %20
[M:1/8] x |[M:3/4] G,,2 G,,2 G,,2 | x6 | x6 | D,4 z2 | x6 | x6 | x6 |[M:6/4] x12 |[M:3/4] x6 | %30
 x6 |] %31
V:4
 x6 | x6 | x6 | x6 |[M:5/8] x5 |[M:1/8] x |[M:3/4] x6 | [DEB]2 .[CEA]2 z G, | x6 |[M:2/4] x4 | %10
[M:1/4] x2 |[M:3/4] x6 | x6 | x6 |[M:5/8] [B,G]2 z z2 |[M:1/8] x |[M:3/4] x6 | z =F [Ec]2 [EA]2 | %18
 x6 |[M:5/8] x5 |[M:1/8] x |[M:3/4] x6 | x6 | x6 | [B,G]2 z2 z2 | x6 | x6 | x6 |[M:6/4] x12 | %29
[M:3/4] x6 | x6 |] %31

